X:703
T:DENIS DELANEY
M:6/8
L:1/8
B:O'NEILL'S 703
Z:Transcribed by A. LEE WORMAN
K:G
d/c/|BAG GBG|GBG ABc|BAG GBG|dcAF Adc|
BAG GBG|GBG ABc|BAG dBG|cAF A2:|
||c|Bcd def|gfe fed|dBG gdB|cAF Adc|
Bcd def|gfe fed|dBG gdB|cAF A2:|
||B/c/|dBG dBG|dBG ABc|dBG dBG|cAF A2 d/c/|
Bcd def|gfe fed|dBG gdB|cAF A2:|
